static/images/codepen.svg

<svg width="35" height="35" viewBox="0 0 35 35" fill="none" xmlns="http://www.w3.org/2000/svg">
<g clip-path="url(#clip0_287_355)">
<path d="M6.80005 15.7C6.80005 16.9 6.80005 18 6.80005 19.2C7.70005 18.6 8.50005 18 9.40005 17.4C8.50005 16.8 7.70005 16.3 6.80005 15.7Z" fill="black"/>
<path d="M17.8 16C17.6 15.8 17.3 15.6 17.1 15.6C16.9 15.6 16.6 15.9 16.4 16C15.8 16.4 15.1 16.9 14.5 17.3C15.5 17.9 16.4 18.6 17.4 19.2H17.6C18.5 18.6 19.3 18.1 20.2 17.5C19.3 17 18.5 16.5 17.8 16Z" fill="black"/>
<path d="M11.6999 15.6C11.7999 15.7 11.8999 15.6 12.0999 15.6C13.2999 14.8 14.4999 13.9 15.6999 13.1C15.7999 13 15.8999 12.9 15.8999 12.7C15.8999 11.1 15.8999 9.4 15.8999 7.8C15.8999 7.7 15.8999 7.6 15.8999 7.5C13.1999 9.4 10.5999 11.2 7.8999 13.1C7.9999 13 7.9999 13 7.9999 13.1C9.2999 13.9 10.4999 14.7 11.6999 15.6Z" fill="black"/>
<path d="M18.9 13.1C20.1 14 21.3 14.8 22.4 15.7C22.5 15.8 22.6 15.8 22.8 15.7C24 14.9 25.3 14 26.5 13.2C26.6 13.2 26.6 13.1 26.7 13C24 11.1 21.3 9.30002 18.6 7.40002C18.6 7.50002 18.6 7.50002 18.6 7.50002C18.6 9.30002 18.6 11 18.6 12.8C18.8 12.9 18.8 13 18.9 13.1Z" fill="black"/>
<path d="M15.8 21.7C14.5 20.9 13.3 20 12 19.2C11.9 19.2 11.8 19.2 11.7 19.2C10.4 20.1 9.10005 21 7.80005 21.9C10.5 23.7 13.2 25.5 15.9 27.3C15.9 25.5 15.9 23.7 15.9 21.9C16 21.9 15.9 21.8 15.8 21.7Z" fill="black"/>
<path d="M31.4 0H3.6C1.6 0 0 1.6 0 3.6V31.5C0 33.4 1.6 35 3.6 35H13.5H21.6H31.5C33.4 35 35.1 33.4 35.1 31.4V3.6C35 1.6 33.4 0 31.4 0ZM30.8 21.4C30.8 22.3 30.4 22.9 29.7 23.4C26 25.8 22.3 28.3 18.7 30.7C17.8 31.3 16.9 31.3 16.1 30.7C12.5 28.3 8.9 25.9 5.3 23.6C4.6 23.1 4.2 22.4 4.2 21.5C4.2 18.9 4.2 16.3 4.2 13.7C4.2 12.8 4.5 12.1 5.3 11.6C8.6 9.3 11.9 7 15.2 4.7C15.7 4.3 16.3 3.9 16.9 3.7C17.1 3.7 17.4 3.7 17.6 3.7C17.9 3.8 18.3 4 18.6 4.2C22.3 6.7 26.1 9.1 29.8 11.6C30.5 12.1 30.9 12.7 30.9 13.6C30.8 16.3 30.8 18.9 30.8 21.4Z" fill="black"/>
<path d="M28 19.3C28 18.1 28 16.9 28 15.7C27.1 16.3 26.2 16.9 25.3 17.5C26.2 18.1 27.1 18.7 28 19.3Z" fill="black"/>
<path d="M22.8 19.3C22.7 19.2 22.6 19.3 22.5 19.3C21.3 20.1 20.2 20.8 19 21.6C18.8 21.7 18.8 21.8 18.8 22C18.8 23.4 18.8 24.7 18.8 26.1C18.8 26.5 18.8 26.8 18.8 27.2C21.5 25.4 24.1 23.6 26.8 21.8L26.7001 21.7C25.4001 21 24.1 20.2 22.8 19.3Z" fill="black"/>
</g>
<defs>
<clipPath id="clip0_287_355">
<rect width="35" height="35" fill="white"/>
</clipPath>
</defs>
</svg>

<?xml version="1.0" encoding="utf-8"?>
<!-- Generator: Adobe Illustrator 26.0.1, SVG Export Plug-In . SVG Version: 6.00 Build 0)  -->
<svg version="1.1" id="Laag_1" xmlns="http://www.w3.org/2000/svg" xmlns:xlink="http://www.w3.org/1999/xlink" x="0px" y="0px"
	 viewBox="0 0 35 35" style="enable-background:new 0 0 35 35;" xml:space="preserve">
<g>
	<path d="M6.8,15.7c0,1.2,0,2.3,0,3.5c0.9-0.6,1.7-1.2,2.6-1.8C8.5,16.8,7.7,16.3,6.8,15.7z"/>
	<path d="M17.8,16c-0.2-0.2-0.5-0.4-0.7-0.4c-0.2,0-0.5,0.3-0.7,0.4c-0.6,0.4-1.3,0.9-1.9,1.3c1,0.6,1.9,1.3,2.9,1.9
		c0,0,0.2,0,0.2,0c0.9-0.6,1.7-1.1,2.6-1.7C19.3,17,18.5,16.5,17.8,16z"/>
	<path d="M11.7,15.6c0.1,0.1,0.2,0,0.4,0c1.2-0.8,2.4-1.7,3.6-2.5c0.1-0.1,0.2-0.2,0.2-0.4c0-1.6,0-3.3,0-4.9c0-0.1,0-0.2,0-0.3
		c-2.7,1.9-5.3,3.7-8,5.6C8,13,8,13,8,13.1C9.3,13.9,10.5,14.7,11.7,15.6z"/>
	<path d="M18.9,13.1c1.2,0.9,2.4,1.7,3.5,2.6c0.1,0.1,0.2,0.1,0.4,0c1.2-0.8,2.5-1.7,3.7-2.5c0.1,0,0.1-0.1,0.2-0.2
		c-2.7-1.9-5.4-3.7-8.1-5.6c0,0.1,0,0.1,0,0.1c0,1.8,0,3.5,0,5.3C18.8,12.9,18.8,13,18.9,13.1z"/>
	<path d="M15.8,21.7c-1.3-0.8-2.5-1.7-3.8-2.5c-0.1,0-0.2,0-0.3,0c-1.3,0.9-2.6,1.8-3.9,2.7c2.7,1.8,5.4,3.6,8.1,5.4
		c0-1.8,0-3.6,0-5.4C16,21.9,15.9,21.8,15.8,21.7z"/>
	<path d="M31.4,0H3.6C1.6,0,0,1.6,0,3.6v27.9C0,33.4,1.6,35,3.6,35h9.9h8.1h9.9c1.9,0,3.6-1.6,3.6-3.6V3.6C35,1.6,33.4,0,31.4,0z
		 M30.8,21.4c0,0.9-0.4,1.5-1.1,2c-3.7,2.4-7.4,4.9-11,7.3c-0.9,0.6-1.8,0.6-2.6,0c-3.6-2.4-7.2-4.8-10.8-7.1
		c-0.7-0.5-1.1-1.2-1.1-2.1c0-2.6,0-5.2,0-7.8c0-0.9,0.3-1.6,1.1-2.1c3.3-2.3,6.6-4.6,9.9-6.9c0.5-0.4,1.1-0.8,1.7-1
		c0.2,0,0.5,0,0.7,0c0.3,0.1,0.7,0.3,1,0.5c3.7,2.5,7.5,4.9,11.2,7.4c0.7,0.5,1.1,1.1,1.1,2C30.8,16.3,30.8,18.9,30.8,21.4z"/>
	<path d="M28,19.3c0-1.2,0-2.4,0-3.6c-0.9,0.6-1.8,1.2-2.7,1.8C26.2,18.1,27.1,18.7,28,19.3z"/>
	<path d="M22.8,19.3c-0.1-0.1-0.2,0-0.3,0c-1.2,0.8-2.3,1.5-3.5,2.3c-0.2,0.1-0.2,0.2-0.2,0.4c0,1.4,0,2.7,0,4.1c0,0.4,0,0.7,0,1.1
		c2.7-1.8,5.3-3.6,8-5.4c0,0-0.1-0.1-0.1-0.1C25.4,21,24.1,20.2,22.8,19.3z"/>
</g>
</svg>
